X: 26751
T: Milky Way, The
R: reel
M: 4/4
K: Dmajor
|:D2 F/E/D FAAB|defd efdA|D2 F/E/D FAAd|BF F2 BFAF|
D2 F/E/D FAAB|defd ef d2|efdB BAFB|AFEG FDDE:|
|:efdB BAFA|d2 fd ef d2|efdB BAFB|AFEG FD D2|
efdB BAFA|d2 fd efde|f2 df efdB|AFEG FDDE:|

